packages/core/src/svgs/tokens/branded/SILK.svg

<svg width="24" height="24" viewBox="0 0 24 24" fill="none" xmlns="http://www.w3.org/2000/svg">
<path fill-rule="evenodd" clip-rule="evenodd" d="M22 11.9999C22 17.5228 17.5228 22 11.9999 22C6.47714 22 2 17.5228 2 11.9999C2 6.47713 6.47714 2 11.9999 2C17.5228 2 22 6.47713 22 11.9999ZM21.3751 11.9995C21.3751 17.1772 17.1779 21.3744 12.0002 21.3744C6.82252 21.3744 2.6252 17.1772 2.6252 11.9995C2.6252 6.8218 6.82252 2.62449 12.0002 2.62449C17.1779 2.62449 21.3751 6.8218 21.3751 11.9995Z" fill="#3399CC"/>
<path fill-rule="evenodd" clip-rule="evenodd" d="M18.6742 16.7442C19.4313 15.7077 19.929 14.5047 20.1255 13.2362C19.6142 13.0525 19.2492 12.5688 19.2492 12C19.25 11.7288 19.3348 11.4645 19.4917 11.2434C19.6485 11.0222 19.8698 10.8549 20.1255 10.7644C19.922 9.45114 19.3962 8.20879 18.5948 7.1487C18.4305 7.22119 18.2479 7.26119 18.0554 7.26119C17.3217 7.26119 16.7261 6.67308 16.7261 5.94683C16.726 5.7681 16.7627 5.59128 16.8342 5.42745C15.4779 4.4512 13.808 3.87496 12.0017 3.87496C10.2523 3.87148 8.5472 4.42461 7.13299 5.45433C7.19485 5.60621 7.22924 5.77246 7.22924 5.94746C7.22924 6.67308 6.63424 7.26119 5.89985 7.26119C5.72236 7.26119 5.55236 7.22682 5.39736 7.16432C4.59824 8.22687 4.07532 9.47112 3.87549 10.7855C4.35674 10.9831 4.69549 11.4524 4.69549 12C4.69479 12.2609 4.61645 12.5157 4.47041 12.7319C4.32438 12.9482 4.11728 13.1162 3.87549 13.2144C4.06891 14.4859 4.56488 15.6925 5.32173 16.7324C5.50049 16.6436 5.70298 16.5937 5.91735 16.5937C6.65111 16.5937 7.24674 17.1825 7.24674 17.9074C7.24674 18.128 7.19173 18.3356 7.09485 18.518C8.46485 19.5275 10.1623 20.1249 12.0023 20.1249C13.7583 20.1284 15.4695 19.5712 16.8867 18.5343C16.7842 18.3481 16.7261 18.1349 16.7261 17.9074C16.7261 17.1817 17.3217 16.5937 18.0554 16.5937C18.2708 16.5932 18.4831 16.6449 18.6742 16.7442ZM13.4946 11.4833C13.8509 11.0483 14.5496 9.94084 14.4984 8.99837C14.4333 7.82087 13.7227 6.50712 11.9696 5.12463C11.1064 5.78275 9.50083 7.2515 9.50083 8.99837C9.50083 10.4475 10.1068 11.0907 10.4486 11.4537C10.4581 11.4638 10.4674 11.4737 10.4765 11.4833L12.519 13.542C12.7172 13.7496 13.1047 14.3227 13.0672 14.9546C13.0215 15.7446 12.4577 16.474 12.0003 16.8689C11.6396 16.6665 10.909 16.0002 10.8727 14.9546C10.8472 14.6965 10.9271 14.0371 11.4521 13.4659L10.4759 12.4783C10.1508 12.7615 9.50083 13.6546 9.50083 14.9546C9.50083 16.5809 10.7659 17.7958 12.0003 18.8746C12.8321 18.2265 14.4984 16.5345 14.4984 14.9546C14.4984 13.3746 13.3615 12.1797 12.7933 11.7797L11.4521 10.4877C11.259 10.3302 10.8727 9.8128 10.8727 8.999C10.8727 8.18462 11.604 7.37337 11.9702 7.06963C12.3358 7.35275 13.0672 8.13587 13.0672 8.99837C13.0672 9.86209 12.7014 10.3509 12.519 10.4877L13.4946 11.4833Z" fill="#3399CC"/>
</svg>

<svg xmlns="http://www.w3.org/2000/svg" width="24" height="24" fill="none" viewBox="0 0 24 24">
    <path fill="#39C" fill-rule="evenodd" d="M22 12c0 5.523-4.477 10-10 10S2 17.523 2 12 6.477 2 12 2s10 4.477 10 10m-.625 0A9.375 9.375 0 0 1 12 21.374 9.375 9.375 0 1 1 21.375 12" clip-rule="evenodd"/>
    <path fill="#39C" fill-rule="evenodd" d="M18.674 16.744a8 8 0 0 0 1.451-3.508A1.32 1.32 0 0 1 19.25 12a1.31 1.31 0 0 1 .877-1.236 8.04 8.04 0 0 0-1.531-3.615 1.3 1.3 0 0 1-.54.112 1.32 1.32 0 0 1-1.329-1.314c0-.179.037-.356.108-.52a8.24 8.24 0 0 0-4.832-1.552 8.24 8.24 0 0 0-4.869 1.58q.095.228.096.492c0 .726-.595 1.314-1.33 1.314-.177 0-.347-.034-.502-.097a8 8 0 0 0-1.522 3.622c.482.197.82.666.82 1.214a1.31 1.31 0 0 1-.82 1.214 8 8 0 0 0 1.447 3.518c.178-.088.381-.138.595-.138.734 0 1.33.588 1.33 1.313 0 .221-.055.429-.152.611a8.24 8.24 0 0 0 4.907 1.607 8.24 8.24 0 0 0 4.885-1.59c-.103-.187-.16-.4-.16-.628a1.32 1.32 0 0 1 1.328-1.313c.216 0 .428.05.62.15m-5.18-5.26c.357-.436 1.056-1.543 1.004-2.486-.065-1.177-.775-2.49-2.528-3.873-.864.658-2.47 2.127-2.47 3.873 0 1.45.607 2.093.949 2.456l.027.03 2.043 2.058c.198.208.586.78.548 1.413-.046.79-.61 1.519-1.067 1.914-.36-.203-1.091-.869-1.127-1.914-.026-.258.054-.918.58-1.49l-.977-.987c-.325.284-.975 1.177-.975 2.477 0 1.626 1.265 2.84 2.5 3.92.831-.648 2.497-2.34 2.497-3.92s-1.136-2.775-1.705-3.175l-1.34-1.292c-.194-.158-.58-.675-.58-1.489s.731-1.626 1.097-1.93c.366.284 1.097 1.067 1.097 1.93s-.366 1.352-.548 1.489z" clip-rule="evenodd"/>
</svg>
